resources/haticons/SVG/deezer.svg

<!-- Generated by IcoMoon.io -->
<svg version="1.1" xmlns="http://www.w3.org/2000/svg" width="24" height="24" viewBox="0 0 24 24">
<title>deezer</title>
<path fill="#feaa2d" d="M18.81 4.16v3.030h5.19v-3.030zM6.27 8.38v3.027h5.189v-3.027zM18.81 8.38v3.027h5.19v-3.027zM6.27 12.594v3.027h5.189v-3.027zM12.541 12.594v3.027h5.19v-3.027zM18.811 12.594v3.027h5.189v-3.027zM0 16.81v3.029h5.19v-3.030zM6.27 16.81v3.029h5.189v-3.030zM12.541 16.81v3.029h5.19v-3.030zM18.811 16.81v3.029h5.189v-3.030z"></path>
</svg>

<svg xmlns="http://www.w3.org/2000/svg" width="24" height="24"><path fill="#feaa2d" d="M18.81 4.16v3.03H24V4.16zM6.27 8.38v3.027h5.189V8.38zm12.54 0v3.027H24V8.38zM6.27 12.594v3.027h5.189v-3.027zm6.271 0v3.027h5.19v-3.027zm6.27 0v3.027H24v-3.027zM0 16.81v3.029h5.19v-3.03zm6.27 0v3.029h5.189v-3.03zm6.271 0v3.029h5.19v-3.03zm6.27 0v3.029H24v-3.03z"/></svg>
